X:2471
T:Hard Times
O:england
M:4/4
L:1/4
C:Stephen Foster
R:Song
K:D
DE|"D"F2 FE|"D7"FA2F|"G"EDDE|"D"F2"G"B>B|"D"A2F2|"Em"EDF>E|"D"D4|"D"D2 D
E| "D"F2 FE|"D7"FA2F|"G"EDDE|"D"F2"G"B2|"D"A2 F2|"Em"ED"A"FE|"D"D4|"D"D
2||FE|"D"A3A|A2 ^GA|"G"B4|"D"A2 A/B/c|"D"d2A2|"Bm"B2A2|"Em"FFED|"A7"E2D
E|"D"F2 FE|"D7"FA2F|"G"EDDE|"D"F2"G"B2|"D"A2 F2|"EM"ED"A"FE|"D"D4|"D"D2
||


